X:1
T:Lady Charlotte Primrose
T:Lady Charlotte Primrose
T:John Gow
C:John Gow
L:1/8
Q:1/8=128
M:4/4
K:D
V:1 treble 
V:1
|: f | d2 AB/c/ d/c/B/A/ df | d2 AB/c/ d>F E2 | d2 AB/c/ d/c/B/A/ df | B/c/d G>B A>F Df | %5
 d2 AB/c/ d/c/B/A/ df | d2 AB/c/ d>F E2 | d2 AB/c/ d/c/B/A/ df | B/c/d G>B A>F DA | %9
 F>D D/D/D A>F df | F>D D/D/D AF E>G | F>D D/D/D A>F df | B/c/d G>B AF D>G | F>D D/D/D A>F df | %14
 F>D D/D/D A>F EG | F>D D/D/D AF A>d | f>d e>c d>F D :| %17

